X:1
T:James Gibb editions
T:Come, gracious Spirit, heavenly Dove - Barnby
%%score [ ( 1 2 ) ( 3 4 ) ]
L:1/8
Q:1/4=80
M:4/4
K:D
V:1 treble nm="Midi_74"
V:2 treble 
V:3 bass nm="Midi_74"
V:4 bass 
V:1
"^Simon Browne\n(c.1680-1732)""^Come, gracious Spirit, heavenly Dove""^L.M.""^Joseph Barnby\n(1838-96)"!mf! F2 | %1
 A2 d2 c2 B2 | A3 G F2 || F2 | G2 F2 E2 F2 | G2 B2 A4 ||[M:4/4] G2 | F2 d2 c2 B2 | A3 G F2 || B2 | %10
 A2 G2 F2 E2 | F3 E D4 || G4 F4 |] %13
V:2
 D2 | C2 D2 E2 D2 | E2 C2 D2 || D2 | D2 D2 B,2 ^D2 | E2 E2 E4 ||[M:4/4] C2 | D2 D2 E2 D2 | %8
 E2 C2 C2 || F2 | F2 G2 D2 D2 | D2 C2 D4 || D4 D4 |] %13
V:3
 A,2 | G,2 A,2 ^A,2 B,2 | E,2 A,2 A,2 || A,2 | G,2 A,2 B,2 A,2 | G,2 G,2 E,4 ||[M:4/4] A,2 | %7
 A,2"^1 Come, gracious Spirit, heav'nly Dove,\nWith light and comfort from above;\nBe Thou our guardian, Thou our guide,\nO'er ev'ry thought and step preside.\n\n2 The light of truth to us display,\nAnd make us know and choose Thy way;\nPlant holy fear in ev'ry heart,\nThat we from Thee may ne'er depart.\n\n3 Lead us to Christ, the living Way,\nNor let us from His precepts stray;\nLead us to holiness, the road\nThat we must take to dwell with God.\n\n4 Lead us to heav'n, that we may share\nFullness of joy for ever there;\nLead us to God, our eternal rest,\nTo be with Him forever blest." A,2 ^A,2 B,2 | %8
 C2 A,2 ^A,2 || B,2 | =C2 B,2 A,2 ^G,2 | A,2 !courtesy!=G,2 F,4 || B,4 A,4 |] %13
V:4
 D,2 | E,2 F,2 G,2 G,2 | C,2 E,2 D,2 || =C,2 | B,,2 A,,2 G,,2 B,,2 | E,2 !courtesy!=D,2 C,4 || %6
[M:4/4] A,,2 | D,2 F,2 G,2 G,2 | C,2 E,2 E,2 || D,2 | D,2 G,,2 A,,2 B,,2 | A,,2 A,,2 D,4 || %12
 G,,4 D,4 |] %13

